svg/regular/bx-left-arrow-circle.svg

<svg xmlns="http://www.w3.org/2000/svg" width="24" height="24"><path d="M11.999 1.993C6.486 1.994 2 6.48 1.999 11.994c0 5.514 4.486 10 10.001 10 5.514-.001 10-4.487 10-10 0-5.514-4.486-10-10.001-10.001zM12 19.994c-4.412 0-8.001-3.589-8.001-8 .001-4.411 3.59-8 8-8.001C16.411 3.994 20 7.583 20 11.994c0 4.41-3.589 7.999-8 8z"/><path d="m12.012 7.989-4.005 4.005 4.005 4.004v-3.004h3.994v-2h-3.994z"/></svg>

<svg xmlns="http://www.w3.org/2000/svg" width="24" height="24" viewBox="0 0 24 24"><path d="M11.999,1.993C6.486,1.994,2,6.48,1.999,11.994c0,5.514,4.486,10,10.001,10c5.514-0.001,10-4.487,10-10 C22,6.48,17.514,1.994,11.999,1.993z M12,19.994c-4.412,0-8.001-3.589-8.001-8c0.001-4.411,3.59-8,8-8.001 C16.411,3.994,20,7.583,20,11.994C20,16.404,16.411,19.993,12,19.994z"/><path d="M12.012 7.989L8.007 11.994 12.012 15.998 12.012 12.994 16.006 12.994 16.006 10.994 12.012 10.994z"/></svg>
